src/svgs/pay-date.svg

<svg xmlns="http://www.w3.org/2000/svg" viewBox="0 0 24 24" width="512" height="512" aria-labelledby="hopay-date-desc hopay-date-title"><title id="hopay-date-title">Paydate Icon</title><desc id="hopay-date-desc">A picture depicting a credit card in front of a calendar.</desc><path d="M5 2v2H4a2.006 2.006 0 00-2 2v14a2.006 2.006 0 002 2h4v-2H4V9h14v2h2V6a2.006 2.006 0 00-2-2h-1V2h-2v2H7V2zm5 14.75h12v3.75a1.5 1.5 0 01-1.5 1.5h-9a1.5 1.5 0 01-1.5-1.5zm12-2.25v.75H10v-.75a1.5 1.5 0 011.5-1.5h9a1.5 1.5 0 011.5 1.5z"/></svg>

<svg xmlns="http://www.w3.org/2000/svg" viewBox="0 0 24 24"><path d="M5,2V4H4A2.006,2.006,0,0,0,2,6V20a2.006,2.006,0,0,0,2,2H8V20H4V9H18v2h2V6a2.006,2.006,0,0,0-2-2H17V2H15V4H7V2Zm5,14.75H22V20.5A1.5,1.5,0,0,1,20.5,22h-9A1.5,1.5,0,0,1,10,20.5ZM22,14.5v.75H10V14.5A1.5,1.5,0,0,1,11.5,13h9A1.5,1.5,0,0,1,22,14.5Z"/></svg>
